Simply-Red-Circles/scalable/apps/distributor-logo-ubuntu-mate.svg

<svg xmlns="http://www.w3.org/2000/svg" width="48" height="48" viewBox="0 0 12.7 12.7"><path d="M6.34.07a6.29 6.29 0 0 0-6.29 6.3 6.29 6.29 0 0 0 6.3 6.28 6.29 6.29 0 0 0 6.28-6.29A6.29 6.29 0 0 0 6.34.07zM6.32 1l.01.01a5.4 5.4 0 0 1 5.4 5.4 5.4 5.4 0 0 1-5.4 5.41 5.4 5.4 0 0 1-5.41-5.4A5.4 5.4 0 0 1 6.32 1zm1.03.73v2.92L9.83 3.2 7.35 1.73zm-1.06.75A3.9 3.9 0 0 0 2.7 4.85l.46.27a3.36 3.36 0 0 1 3.65-2.06v-.54a3.87 3.87 0 0 0-.53-.04zm0 1.32c-1.12 0-2.08.73-2.43 1.73l.48.28a2.03 2.03 0 0 1 2.48-1.4v-.55a2.56 2.56 0 0 0-.53-.06zm3.12.25l-.46.27a3.35 3.35 0 0 1-.02 4.14l.46.27a3.88 3.88 0 0 0 .02-4.68zm-1.15.68l-.47.28a2.03 2.03 0 0 1-.03 2.76l.48.28a2.56 2.56 0 0 0 .02-3.32zm-6.48.18v2.93l2.47-1.46L1.78 4.9zm2.56 2.03l-.48.28A2.58 2.58 0 0 0 6.82 8.9v-.55a2.02 2.02 0 0 1-2.48-1.4zm-1.17.7l-.46.27a3.9 3.9 0 0 0 4.1 2.33V9.7a3.38 3.38 0 0 1-3.64-2.06zm4.18.5v2.93l2.48-1.46-2.48-1.46z" fill="#a02c2c"/></svg>

<?xml version="1.0" encoding="UTF-8" standalone="no"?>
<svg
   xmlns:dc="http://purl.org/dc/elements/1.1/"
   xmlns:cc="http://creativecommons.org/ns#"
   xmlns:rdf="http://www.w3.org/1999/02/22-rdf-syntax-ns#"
   xmlns:svg="http://www.w3.org/2000/svg"
   xmlns="http://www.w3.org/2000/svg"
   xmlns:sodipodi="http://sodipodi.sourceforge.net/DTD/sodipodi-0.dtd"
   xmlns:inkscape="http://www.inkscape.org/namespaces/inkscape"
   width="48"
   height="48"
   viewBox="0 0 12.7 12.7"
   version="1.1"
   id="svg4"
   sodipodi:docname="distributor-logo-ubuntu-mate.svg"
   inkscape:version="0.92.4 (5da689c313, 2019-01-14)">
  <metadata
     id="metadata10">
    <rdf:RDF>
      <cc:Work
         rdf:about="">
        <dc:format>image/svg+xml</dc:format>
        <dc:type
           rdf:resource="http://purl.org/dc/dcmitype/StillImage" />
        <dc:title></dc:title>
      </cc:Work>
    </rdf:RDF>
  </metadata>
  <defs
     id="defs8" />
  <sodipodi:namedview
     pagecolor="#ffffff"
     bordercolor="#666666"
     borderopacity="1"
     objecttolerance="10"
     gridtolerance="10"
     guidetolerance="10"
     inkscape:pageopacity="0"
     inkscape:pageshadow="2"
     inkscape:window-width="1087"
     inkscape:window-height="480"
     id="namedview6"
     showgrid="false"
     inkscape:zoom="4.9166667"
     inkscape:cx="2.1355932"
     inkscape:cy="24"
     inkscape:window-x="0"
     inkscape:window-y="25"
     inkscape:window-maximized="0"
     inkscape:current-layer="svg4" />
  <path
     d="M 6.34,0.07 A 6.29,6.29 0 0 0 0.05,6.37 6.29,6.29 0 0 0 6.35,12.65 6.29,6.29 0 0 0 12.63,6.36 6.29,6.29 0 0 0 6.34,0.07 Z M 6.32,1 6.33,1.01 a 5.4,5.4 0 0 1 5.4,5.4 5.4,5.4 0 0 1 -5.4,5.41 A 5.4,5.4 0 0 1 0.92,6.42 5.4,5.4 0 0 1 6.32,1 Z M 7.35,1.73 V 4.65 L 9.83,3.2 Z M 6.29,2.48 A 3.9,3.9 0 0 0 2.7,4.85 L 3.16,5.12 A 3.36,3.36 0 0 1 6.81,3.06 V 2.52 A 3.87,3.87 0 0 0 6.28,2.48 Z m 0,1.32 C 5.17,3.8 4.21,4.53 3.86,5.53 L 4.34,5.81 A 2.03,2.03 0 0 1 6.82,4.41 V 3.86 A 2.56,2.56 0 0 0 6.29,3.8 Z M 9.41,4.05 8.95,4.32 A 3.35,3.35 0 0 1 8.93,8.46 L 9.39,8.73 A 3.88,3.88 0 0 0 9.41,4.05 Z M 8.26,4.73 7.79,5.01 A 2.03,2.03 0 0 1 7.76,7.77 L 8.24,8.05 A 2.56,2.56 0 0 0 8.26,4.73 Z M 1.78,4.91 V 7.84 L 4.25,6.38 1.78,4.9 Z M 4.34,6.94 3.86,7.22 A 2.58,2.58 0 0 0 6.82,8.9 V 8.35 A 2.02,2.02 0 0 1 4.34,6.95 Z M 3.17,7.64 2.71,7.91 a 3.9,3.9 0 0 0 4.1,2.33 V 9.7 A 3.38,3.38 0 0 1 3.17,7.64 Z m 4.18,0.5 v 2.93 L 9.83,9.61 7.35,8.15 Z"
     id="path2"
     inkscape:connector-curvature="0"
     style="fill:#a02c2c" />
</svg>
